_icons/SVG/554-darumaka.svg

<svg xmlns="http://www.w3.org/2000/svg" viewBox="0 0 32 32"><title>554-darumaka</title><path d="M12.15448,27.25168l-.07086-.0625.93036-2.75-6.22229-3.375c-.22351,2.64435.23376,4.66168,1.875,6.25l-.00794.0069Q10.3902,27.36145,12.15448,27.25168Z" style="fill:#962931"/><path d="M12.15448,27.25168q-1.76349.10675-3.49573.0694c-1.95929,1.62945-2.27606,2.46569-1.86706,2.95147.28436.50623,1.14349.348,2.16662,0a2.23092,2.23092,0,0,0,1.375.75,1.56236,1.56236,0,0,0,1.3916-.83337c1.32721.32281,2.09351.32385,2.36615.04169C14.78973,29.48758,13.40411,28.357,12.15448,27.25168Z" style="fill:#ce692c"/><path d="M3.625,10.78964c-.00464-.00146-.00781-.00708-.01239-.00873a14.51325,14.51325,0,0,0-.57428,3.36164.58927.58927,0,0,1,.08667.01379L6.25,16.39755l1.70831-6.16668Z" style="fill:#9c2c30"/><path d="M1.83331,8.52255C1.2912,8.6774,1.307,9.393,1.375,10.43918A1.761,1.761,0,0,0,0,11.35587c-.05054.44641.42133.87042.95831,1.29168C.38141,13.6282.21124,14.21579.375,14.48087c.22266.56433,1.95923-.52,2.66333-.33832a14.51325,14.51325,0,0,1,.57428-3.36164C2.90588,10.52762,2.87122,8.35623,1.83331,8.52255Z" style="fill:#d6712d"/><path d="M5.729,18.10416c0,5.35956,6.60669,8.47821,10.271,8.47821V1.73026C9.6839,1.73026,5.729,9.47647,5.729,18.10416Z" style="fill:#a92f31"/><path d="M14.41266,17.96237c0,1.609.71069,2.91321,1.58734,2.91321V15.04916C15.12335,15.04916,14.41266,16.35342,14.41266,17.96237Z" style="fill:#e0b12e"/><ellipse cx="12.08363" cy="17.8321" rx="2.78296" ry="1.51636" transform="translate(-6.85354 28.09764) rotate(-84.33853)" style="fill:#e0b12e"/><path d="M12.08362,6.41385l.32672,4.22046c-.08771.30414,2.61175,1.6615,3.58966,1.34772V3.61081C13.24622,3.79666,12.08362,5.73813,12.08362,6.41385Z" style="fill:#dd7731"/><path d="M15.97717,11.57712c-1.96991,0-2.66455-1.28284-2.92407-.57379a2.58875,2.58875,0,0,0,2.92407,2.78137L16,13.78464V11.57785Z" style="fill:#dadddc"/><ellipse cx="11.7194" cy="8.86023" rx="2.37167" ry="3.156" style="fill:#f7f7f7"/><ellipse cx="11.72491" cy="8.80736" rx="0.62177" ry="1.00442" style="fill:#373f3f"/><path d="M9.87634,2.6892,4.75,1.02253c.84313,2.54074,2.14717,6.25,4.125,6.25,2.10062-.147,4.01909-.55737,4.79167-2.625.3419-.73092,1.134-3.22739-.875-3.625C11.19408.85449,9.95361,1.09937,9.87634,2.6892Z" style="fill:#e8ba36"/><path d="M19.84552,27.25168l.07086-.0625-.93036-2.75,6.22229-3.375c.22351,2.64435-.23376,4.66168-1.875,6.25l.00794.0069Q21.6098,27.36145,19.84552,27.25168Z" style="fill:#8e252d"/><path d="M19.84552,27.25168q1.76349.10675,3.49573.0694c1.95929,1.62945,2.27606,2.46569,1.86706,2.95147-.28436.50623-1.14349.348-2.16662,0a2.23092,2.23092,0,0,1-1.375.75,1.56236,1.56236,0,0,1-1.3916-.83337c-1.32721.32281-2.09351.32385-2.36615.04169C17.21027,29.48758,18.59589,28.357,19.84552,27.25168Z" style="fill:#c95f2b"/><path d="M28.375,10.78964c.00464-.00146.00781-.00708.01239-.00873a14.51325,14.51325,0,0,1,.57428,3.36164.58927.58927,0,0,0-.08667.01379L25.75,16.39755l-1.70831-6.16668Z" style="fill:#962931"/><path d="M30.16669,8.52255c.54211.15485.52636.87049.45831,1.91663A1.761,1.761,0,0,1,32,11.35587c.05054.44641-.42133.87042-.95831,1.29168.5769.98065.74707,1.56824.58331,1.83332-.22266.56433-1.95923-.52-2.66333-.33832a14.51325,14.51325,0,0,0-.57428-3.36164C29.09412,10.52762,29.12878,8.35623,30.16669,8.52255Z" style="fill:#ce692c"/><path d="M26.271,18.10416c0,5.35956-6.60669,8.47821-10.271,8.47821V1.73026C22.3161,1.73026,26.271,9.47647,26.271,18.10416Z" style="fill:#9c2c30"/><path d="M17.58734,17.95985c-.00357,1.60894-.71715,2.91162-1.5938,2.90968l.01293-5.82641C16.88312,15.04507,17.59091,16.3509,17.58734,17.95985Z" style="fill:#dba728"/><ellipse cx="19.91666" cy="17.83474" rx="1.51636" ry="2.78296" transform="translate(-1.62718 2.00393) rotate(-5.53431)" style="fill:#dba728"/><path d="M19.91638,6.41385l-.32672,4.22046c.08771.30414-2.61175,1.6615-3.58966,1.34772V3.61081C18.75378,3.79666,19.91638,5.73813,19.91638,6.41385Z" style="fill:#d6712d"/><path d="M16.02283,11.57712c1.96991,0,2.66455-1.28284,2.92407-.57379a2.58875,2.58875,0,0,1-2.92407,2.78137L16,13.78464V11.57785Z" style="fill:#e3e5e5"/><ellipse cx="20.2806" cy="8.86023" rx="2.37167" ry="3.156" style="fill:#edeeee"/><ellipse cx="20.27509" cy="8.80736" rx="0.62177" ry="1.00442" style="fill:#2b3332"/><path d="M22.12366,2.6892,27.25,1.02253c-.84313,2.54074-2.14717,6.25-4.125,6.25-2.10062-.147-4.01909-.55737-4.79167-2.625-.3419-.73092-1.134-3.22739.875-3.625C20.80592.85449,22.04639,1.09937,22.12366,2.6892Z" style="fill:#e0b12e"/></svg>

<svg xmlns="http://www.w3.org/2000/svg" viewBox="0 0 32 32"><path d="M12.154 27.252l-.07-.063.93-2.75-6.222-3.375c-.224 2.645.233 4.662 1.875 6.25l-.008.007q1.731.04 3.495-.07z" fill="#962931"/><path d="M12.154 27.252q-1.763.106-3.495.07c-1.96 1.629-2.276 2.465-1.867 2.95.284.507 1.143.349 2.166 0a2.23 2.23 0 001.375.75 1.562 1.562 0 001.392-.833c1.327.323 2.093.324 2.366.042.699-.743-.687-1.874-1.937-2.98z" fill="#ce692c"/><path d="M3.625 10.79c-.005-.002-.008-.007-.012-.01a14.513 14.513 0 00-.575 3.363.59.59 0 01.087.013l3.125 2.242 1.708-6.167z" fill="#9c2c30"/><path d="M1.833 8.523c-.542.154-.526.87-.458 1.916A1.761 1.761 0 000 11.356c-.05.446.421.87.958 1.292-.577.98-.747 1.568-.583 1.833.223.564 1.96-.52 2.663-.338a14.513 14.513 0 01.575-3.362c-.707-.253-.742-2.425-1.78-2.258z" fill="#d6712d"/><path d="M5.729 18.104c0 5.36 6.607 8.478 10.271 8.478V1.73c-6.316 0-10.271 7.746-10.271 16.374z" fill="#a92f31"/><path d="M14.413 17.962c0 1.61.71 2.914 1.587 2.914v-5.827c-.877 0-1.587 1.304-1.587 2.913z" fill="#e0b12e"/><ellipse cx="12.084" cy="17.832" rx="2.783" ry="1.516" transform="rotate(-84.339 12.084 17.832)" fill="#e0b12e"/><path d="M12.084 6.414l.326 4.22c-.087.304 2.612 1.662 3.59 1.348V3.611c-2.754.186-3.916 2.127-3.916 2.803z" fill="#dd7731"/><path d="M15.977 11.577c-1.97 0-2.664-1.283-2.924-.574a2.589 2.589 0 002.924 2.782H16v-2.207z" fill="#dadddc"/><ellipse cx="11.719" cy="8.86" rx="2.372" ry="3.156" fill="#f7f7f7"/><ellipse cx="11.725" cy="8.807" rx=".622" ry="1.004" fill="#373f3f"/><path d="M9.876 2.69L4.75 1.022c.843 2.54 2.147 6.25 4.125 6.25 2.1-.147 4.02-.558 4.792-2.625.342-.731 1.134-3.228-.875-3.625-1.598-.169-2.838.076-2.916 1.666z" fill="#e8ba36"/><path d="M19.846 27.252l.07-.063-.93-2.75 6.222-3.375c.224 2.645-.233 4.662-1.875 6.25l.008.007q-1.731.04-3.495-.07z" fill="#8e252d"/><path d="M19.846 27.252q1.763.106 3.495.07c1.96 1.629 2.276 2.465 1.867 2.95-.284.507-1.143.349-2.166 0a2.23 2.23 0 01-1.375.75 1.562 1.562 0 01-1.392-.833c-1.327.323-2.093.324-2.366.042-.699-.743.687-1.874 1.937-2.98z" fill="#c95f2b"/><path d="M28.375 10.79c.005-.002.008-.007.012-.01a14.513 14.513 0 01.575 3.363.59.59 0 00-.087.013l-3.125 2.242-1.708-6.167z" fill="#962931"/><path d="M30.167 8.523c.542.154.526.87.458 1.916a1.761 1.761 0 011.375.917c.05.446-.421.87-.958 1.292.577.98.747 1.568.583 1.833-.223.564-1.96-.52-2.663-.338a14.513 14.513 0 00-.575-3.362c.707-.253.742-2.425 1.78-2.258z" fill="#ce692c"/><path d="M26.271 18.104c0 5.36-6.607 8.478-10.271 8.478V1.73c6.316 0 10.271 7.746 10.271 16.374z" fill="#9c2c30"/><path d="M17.587 17.96c-.003 1.609-.717 2.911-1.593 2.91l.012-5.827c.877.002 1.585 1.308 1.581 2.917z" fill="#dba728"/><ellipse cx="19.917" cy="17.835" rx="1.516" ry="2.783" transform="rotate(-5.534 19.917 17.835)" fill="#dba728"/><path d="M19.916 6.414l-.326 4.22c.087.304-2.612 1.662-3.59 1.348V3.611c2.754.186 3.916 2.127 3.916 2.803z" fill="#d6712d"/><path d="M16.023 11.577c1.97 0 2.664-1.283 2.924-.574a2.589 2.589 0 01-2.924 2.782H16v-2.207z" fill="#e3e5e5"/><ellipse cx="20.281" cy="8.86" rx="2.372" ry="3.156" fill="#edeeee"/><ellipse cx="20.275" cy="8.807" rx=".622" ry="1.004" fill="#2b3332"/><path d="M22.124 2.69l5.126-1.667c-.843 2.54-2.147 6.25-4.125 6.25-2.1-.147-4.02-.558-4.792-2.625-.342-.731-1.134-3.228.875-3.625 1.598-.169 2.838.076 2.916 1.666z" fill="#e0b12e"/></svg>
